X:24
T:Bluebell polka
R:polka 48
O:England
M:2/4
L:1/16
Q:1/4=116
K:G
|:b2b2 gfge|dedc B3G|FGAB c2d2|ed^cd B2dg|
b2b2 gfge|d2d2 B3G|FGAB cdef|g2g2 g4:|
K:D
|:A2A2 FAdf|a2a2 f4|a2 (3^gag =g2e2|b2a2 f4|
A2A2 FAdf|a2a2 f4|a2 (3^gag =g2e2|d2f2 d4:|
K:G
|:B2B2 Bcd2|B2B2 Bcd2|cBcd cBA2|cBcd cBA2|
B2B2 Bcd2|B2B2 Bcd2|cBcd cBA2|G2B2 G4:|]
W:Sometimes played ABACA.

